<?xml version="1.0" encoding="UTF-8"?>
<map version="1.10" tiledversion="1.10.2" orientation="orthogonal" renderorder="right-down" width="15" height="11" tilewidth="32" tileheight="32" infinite="0" nextlayerid="4" nextobjectid="3">
 <editorsettings>
  <export target="../public/assets/maps/cellar.tmj" format="json"/>
 </editorsettings>
 <properties>
  <property name="name" value="The Cellar"/>
 </properties>
 <tileset firstgid="1" name="dungeon_tiles" tilewidth="32" tileheight="32" tilecount="16" columns="8">
  <image source="../public/assets/tilesets/dungeon_tiles.png" width="256" height="64"/>
  <tile id="3">
   <properties>
    <property name="collides" type="bool" value="true"/>
   </properties>
  </tile>
  <tile id="4">
   <properties>
    <property name="collides" type="bool" value="true"/>
   </properties>
  </tile>
  <tile id="5">
   <properties>
    <property name="collides" type="bool" value="true"/>
   </properties>
  </tile>
  <tile id="8">
   <properties>
    <property name="collides" type="bool" value="true"/>
   </properties>
  </tile>
  <tile id="10">
   <properties>
    <property name="collides" type="bool" value="true"/>
   </properties>
  </tile>
  <tile id="11">
   <properties>
    <property name="collides" type="bool" value="true"/>
   </properties>
  </tile>
  <tile id="13">
   <properties>
    <property name="collides" type="bool" value="true"/>
   </properties>
  </tile>
  <tile id="15">
   <properties>
    <property name="collides" type="bool" value="true"/>
   </properties>
  </tile>
 </tileset>
 <layer id="1" name="Floor" width="15" height="11">
  <data encoding="csv">
3,3,3,3,3,3,3,3,3,3,3,3,3,3,3,
3,3,3,3,3,3,3,3,3,3,3,3,3,3,3,
1,1,3,1,1,1,1,1,1,1,1,2,1,1,1,
1,1,1,1,1,1,1,1,1,1,1,1,1,1,1,
1,13,1,1,1,2,1,1,1,1,3,1,1,1,1,
1,1,1,1,1,1,1,1,1,1,1,1,1,13,1,
1,1,3,1,1,1,1,1,1,1,1,1,1,1,1,
1,1,1,1,1,1,1,13,1,1,1,1,2,1,1,
1,1,1,2,1,1,1,1,1,1,1,1,1,1,1,
1,1,1,1,1,1,1,1,1,1,3,1,1,1,1,
3,3,3,3,3,3,3,3,3,3,3,3,3,3,3
</data>
 </layer>
 <layer id="2" name="Walls" width="15" height="11">
  <data encoding="csv">
5,5,5,5,5,5,5,5,5,5,5,5,5,5,5,
5,4,4,14,4,4,4,7,4,4,4,14,4,4,5,
5,0,0,0,0,0,0,0,0,0,0,0,0,0,5,
5,0,0,0,0,0,0,0,0,0,0,0,0,0,5,
5,0,0,0,12,0,0,0,0,0,12,0,0,0,5,
5,0,0,0,0,0,0,0,0,0,0,0,0,0,5,
5,0,0,0,0,0,0,0,0,0,0,0,0,0,5,
5,0,0,0,12,0,0,0,0,0,12,0,0,0,5,
5,11,11,0,0,0,0,0,0,0,0,0,0,9,5,
5,11,11,11,0,0,0,0,0,0,0,0,9,9,5,
5,5,5,5,5,5,5,5,5,5,5,5,5,5,5
</data>
 </layer>
 <objectgroup id="3" name="Objects">
  <object id="1" name="from_hall" x="240" y="112">
   <point/>
  </object>
  <object id="2" name="door" x="224" y="32" width="32" height="32">
   <properties>
    <property name="target" value="hall"/>
    <property name="entrance" value="from_cellar"/>
   </properties>
  </object>
 </objectgroup>
</map>
