{
 "compressionlevel": -1,
 "height": 11,
 "infinite": false,
 "layers": [
  {
   "data": [
    3, 3, 3, 3, 3, 3, 3, 3, 3, 3, 3, 3, 3, 3, 3,
    3, 3, 3, 3, 3, 3, 3, 3, 3, 3, 3, 3, 3, 3, 3,
    1, 1, 3, 1, 1, 1, 1, 1, 1, 1, 1, 2, 1, 1, 1,
    1, 1, 1, 1, 1, 1, 1, 1, 1, 1, 1, 1, 1, 1, 1,
    1, 13, 1, 1, 1, 2, 1, 1, 1, 1, 3, 1, 1, 1, 1,
    1, 1, 1, 1, 1, 1, 1, 1, 1, 1, 1, 1, 1, 13, 1,
    1, 1, 3, 1, 1, 1, 1, 1, 1, 1, 1, 1, 1, 1, 1,
    1, 1, 1, 1, 1, 1, 1, 13, 1, 1, 1, 1, 2, 1, 1,
    1, 1, 1, 2, 1, 1, 1, 1, 1, 1, 1, 1, 1, 1, 1,
    1, 1, 1, 1, 1, 1, 1, 1, 1, 1, 3, 1, 1, 1, 1,
    3, 3, 3, 3, 3, 3, 3, 3, 3, 3, 3, 3, 3, 3, 3
   ],
   "height": 11,
   "id": 1,
   "name": "Floor",
   "opacity": 1,
   "type": "tilelayer",
   "visible": true,
   "width": 15,
   "x": 0,
   "y": 0
  },
  {
   "data": [
    5, 5, 5, 5, 5, 5, 5, 5, 5, 5, 5, 5, 5, 5, 5,
    5, 4, 4, 14, 4, 4, 4, 7, 4, 4, 4, 14, 4, 4, 5,
    5, 0, 0, 0, 0, 0, 0, 0, 0, 0, 0, 0, 0, 0, 5,
    5, 0, 0, 0, 0, 0, 0, 0, 0, 0, 0, 0, 0, 0, 5,
    5, 0, 0, 0, 12, 0, 0, 0, 0, 0, 12, 0, 0, 0, 5,
    5, 0, 0, 0, 0, 0, 0, 0, 0, 0, 0, 0, 0, 0, 5,
    5, 0, 0, 0, 0, 0, 0, 0, 0, 0, 0, 0, 0, 0, 5,
    5, 0, 0, 0, 12, 0, 0, 0, 0, 0, 12, 0, 0, 0, 5,
    5, 11, 11, 0, 0, 0, 0, 0, 0, 0, 0, 0, 0, 9, 5,
    5, 11, 11, 11, 0, 0, 0, 0, 0, 0, 0, 0, 9, 9, 5,
    5, 5, 5, 5, 5, 5, 5, 5, 5, 5, 5, 5, 5, 5, 5
   ],
   "height": 11,
   "id": 2,
   "name": "Walls",
   "opacity": 1,
   "type": "tilelayer",
   "visible": true,
   "width": 15,
   "x": 0,
   "y": 0
  },
  {
   "draworder": "topdown",
   "id": 3,
   "name": "Objects",
   "objects": [
    {
     "height": 0,
     "id": 1,
     "name": "from_hall",
     "point": true,
     "rotation": 0,
     "type": "",
     "visible": true,
     "width": 0,
     "x": 240,
     "y": 112
    },
    {
     "height": 32,
     "id": 2,
     "name": "door",
     "properties": [
      {
       "name": "target",
       "type": "string",
       "value": "hall"
      },
      {
       "name": "entrance",
       "type": "string",
       "value": "from_cellar"
      }
     ],
     "rotation": 0,
     "type": "",
     "visible": true,
     "width": 32,
     "x": 224,
     "y": 32
    }
   ],
   "opacity": 1,
   "type": "objectgroup",
   "visible": true,
   "x": 0,
   "y": 0
  }
 ],
 "nextlayerid": 4,
 "nextobjectid": 3,
 "orientation": "orthogonal",
 "properties": [
  {
   "name": "name",
   "type": "string",
   "value": "The Cellar"
  }
 ],
 "renderorder": "right-down",
 "tiledversion": "1.10.2",
 "tileheight": 32,
 "tilesets": [
  {
   "columns": 8,
   "firstgid": 1,
   "image": "../tilesets/dungeon_tiles.png",
   "imageheight": 64,
   "imagewidth": 256,
   "margin": 0,
   "name": "dungeon_tiles",
   "spacing": 0,
   "tilecount": 16,
   "tileheight": 32,
   "tiles": [
    {
     "id": 3,
     "properties": [
      {
       "name": "collides",
       "type": "bool",
       "value": true
      }
     ]
    },
    {
     "id": 4,
     "properties": [
      {
       "name": "collides",
       "type": "bool",
       "value": true
      }
     ]
    },
    {
     "id": 5,
     "properties": [
      {
       "name": "collides",
       "type": "bool",
       "value": true
      }
     ]
    },
    {
     "id": 8,
     "properties": [
      {
       "name": "collides",
       "type": "bool",
       "value": true
      }
     ]
    },
    {
     "id": 10,
     "properties": [
      {
       "name": "collides",
       "type": "bool",
       "value": true
      }
     ]
    },
    {
     "id": 11,
     "properties": [
      {
       "name": "collides",
       "type": "bool",
       "value": true
      }
     ]
    },
    {
     "id": 13,
     "properties": [
      {
       "name": "collides",
       "type": "bool",
       "value": true
      }
     ]
    },
    {
     "id": 15,
     "properties": [
      {
       "name": "collides",
       "type": "bool",
       "value": true
      }
     ]
    }
   ],
   "tilewidth": 32
  }
 ],
 "tilewidth": 32,
 "type": "map",
 "version": "1.10",
 "width": 15
}
